icons/1_Primary/GoodSync.svg

<svg width="1024" height="1024" fill="none" xmlns="http://www.w3.org/2000/svg"><g clip-path="url(#a)"><path d="M512 1024c282.77 0 512-229.23 512-512S794.77 0 512 0 0 229.23 0 512s229.23 512 512 512Z" fill="#FF837D"/><path d="M513.44 768a257.597 257.597 0 0 1-182.12-75.27c-74.86-74.86-96.001-189.61-53.231-286.66-15.58-21.59-18.999-49.14-9.199-74.47a78.596 78.596 0 0 1 61.599-49.66l121.94-19.17a256.08 256.08 0 0 1 240.191 68.66C768.15 407 789 522.49 745 620c15.049 21.63 18.139 49 8.169 74a78.677 78.677 0 0 1-61.349 49l-132.94 21a258.71 258.71 0 0 1-45.44 4Zm-2.291-499.5a249.258 249.258 0 0 0-56.34 6.5l-122.38 19.24a66.245 66.245 0 0 0-51.929 41.87c-8.7 22.37-5.091 46.76 9.649 65.26l2.38 3-1.589 3.48c-42.66 93-22.891 204 49.179 276.08A245.477 245.477 0 0 0 556.82 751.7l133.06-20.92a66.277 66.277 0 0 0 51.719-41.33c8.81-22.09 5.551-46.35-8.719-64.89l-2.32-3 1.609-3.43c43.79-93.51 24.361-205.19-48.349-277.9a243.442 243.442 0 0 0-79.173-53.106 243.428 243.428 0 0 0-93.498-18.624ZM740.45 547.83a234.615 234.615 0 0 0-.291-70.84A231.916 231.916 0 0 0 510.63 281.06a235.138 235.138 0 0 0-53.21 6.1l-.44.1-.451.07-122.17 19.22a53.757 53.757 0 0 0-42.789 35.5A53.103 53.103 0 0 0 301.91 396l5.51 6.19-3.57 7.47a234.809 234.809 0 0 0-19.91 138.4 231.941 231.941 0 0 0 229.39 195 235.38 235.38 0 0 0 41.37-3.67h.26l133-20.91a53.786 53.786 0 0 0 42.62-35 53.133 53.133 0 0 0-9.58-53.73l-5.35-6.22 3.6-7.37a233.912 233.912 0 0 0 21.19-68.33h.01ZM473.39 710.74A202.703 202.703 0 0 1 368.999 655c-72.89-72.89-78.94-187.45-18.35-268l-16.87-5.55a25.539 25.539 0 0 1-10.079-6.2c-14.87-14.87-6.441-40.43 14.409-43.71l140.17-22-22 140c-3.28 20.91-28.9 29.36-43.82 14.46a25.655 25.655 0 0 1-6.12-9.82l-5.16-15.08c-32.4 51.73-26.29 120.56 18.47 165.31a132.16 132.16 0 0 0 63.16 35.29l-1.919.34c53.159 6.27 49.96 73.82-7.5 70.7Zm217.43-71.81a26.127 26.127 0 0 1 10.31 6.35c15.21 15.21 6.59 41.37-14.74 44.72l-143.341 22.55 22.521-143.27c3.36-21.4 29.58-30 44.83-14.79a26.229 26.229 0 0 1 6.259 10.05l6.69 19.56c31.73-51.62 25.421-119.88-19.06-164.36a132.179 132.179 0 0 0-66.919-36.13l.5-.09c-54.27-6.41-49.81-76.66 11.15-70.43a202.713 202.713 0 0 1 105.87 56c71.93 71.93 78.759 184.43 20.709 264.77l15.221 5.07Z" fill="#fff"/></g><defs><clipPath id="a"><path fill="#fff" d="M0 0h1024v1024H0z"/></clipPath></defs></svg>

<svg width="1024" height="1024" viewBox="0 0 1024 1024" fill="none" xmlns="http://www.w3.org/2000/svg">
<g clip-path="url(#clip0_2_2310)">
<path d="M512 1024C794.77 1024 1024 794.77 1024 512C1024 229.23 794.77 0 512 0C229.23 0 0 229.23 0 512C0 794.77 229.23 1024 512 1024Z" fill="#FF837D"/>
<path d="M513.44 768C445.156 768.04 379.651 740.966 331.32 692.73C256.46 617.87 235.319 503.12 278.089 406.07C262.509 384.48 259.09 356.93 268.89 331.6C273.849 318.615 282.164 307.178 292.985 298.454C303.806 289.73 316.748 284.032 330.489 281.94L452.429 262.77C494.997 252.754 539.419 253.806 581.465 265.825C623.51 277.844 661.777 300.43 692.62 331.43C768.15 407 789 522.49 745 620C760.049 641.63 763.139 669 753.169 694C748.13 706.825 739.81 718.1 729.044 726.7C718.277 735.299 705.441 740.92 691.82 743L558.88 764C543.88 766.669 528.674 768.007 513.44 768ZM511.149 268.5C492.183 268.516 473.281 270.697 454.809 275L332.429 294.24C320.844 296.002 309.932 300.805 300.809 308.161C291.686 315.517 284.678 325.161 280.5 336.11C271.8 358.48 275.409 382.87 290.149 401.37L292.529 404.37L290.94 407.85C248.28 500.85 268.049 611.85 340.119 683.93C368.114 711.84 402.435 732.577 440.163 744.376C477.892 756.175 517.912 758.687 556.82 751.7L689.88 730.78C701.367 729.029 712.192 724.289 721.269 717.035C730.347 709.781 737.358 700.268 741.599 689.45C750.409 667.36 747.15 643.1 732.88 624.56L730.56 621.56L732.169 618.13C775.959 524.62 756.53 412.94 683.82 340.23C661.187 317.483 634.28 299.435 604.647 287.124C575.013 274.814 543.238 268.485 511.149 268.5ZM740.45 547.83C743.939 524.338 743.841 500.453 740.159 476.99C731.571 422.317 703.715 372.517 661.621 336.586C619.528 300.654 565.973 280.96 510.63 281.06C492.718 281.06 474.866 283.107 457.42 287.16L456.98 287.26L456.529 287.33L334.359 306.55C324.669 308.005 315.56 312.081 308.018 318.338C300.476 324.595 294.788 332.794 291.57 342.05C288.211 351.131 287.399 360.957 289.221 370.466C291.044 379.975 295.431 388.805 301.91 396L307.42 402.19L303.85 409.66C283.313 452.701 276.368 500.975 283.94 548.06C292.728 602.538 320.652 652.097 362.695 687.838C404.739 723.578 458.148 743.158 513.33 743.06C527.201 743.058 541.045 741.83 554.7 739.39H554.96L687.96 718.48C697.561 717.036 706.593 713.02 714.096 706.858C721.6 700.696 727.296 692.618 730.58 683.48C733.992 674.495 734.903 664.753 733.216 655.291C731.529 645.829 727.307 637.002 721 629.75L715.65 623.53L719.25 616.16C729.775 594.605 736.922 571.559 740.44 547.83H740.45ZM473.39 710.74C433.823 702.957 397.477 683.55 368.999 655C296.109 582.11 290.059 467.55 350.649 387L333.779 381.45C329.98 380.201 326.528 378.077 323.7 375.25C308.83 360.38 317.259 334.82 338.109 331.54L478.279 309.54L456.279 449.54C452.999 470.45 427.379 478.9 412.459 464C409.698 461.236 407.605 457.877 406.339 454.18L401.179 439.1C368.779 490.83 374.889 559.66 419.649 604.41C437.01 621.819 458.883 634.041 482.809 639.7L480.89 640.04C534.049 646.31 530.85 713.86 473.39 710.74ZM690.82 638.93C694.706 640.21 698.238 642.385 701.13 645.28C716.34 660.49 707.72 686.65 686.39 690L543.049 712.55L565.57 569.28C568.93 547.88 595.15 539.28 610.4 554.49C613.225 557.319 615.366 560.757 616.659 564.54L623.349 584.1C655.079 532.48 648.77 464.22 604.289 419.74C586.004 401.401 562.734 388.838 537.37 383.61L537.87 383.52C483.6 377.11 488.06 306.86 549.02 313.09C589.144 320.667 626.045 340.186 654.89 369.09C726.82 441.02 733.649 553.52 675.599 633.86L690.82 638.93Z" fill="white"/>
</g>
<defs>
<clipPath id="clip0_2_2310">
<rect width="1024" height="1024" fill="white"/>
</clipPath>
</defs>
</svg>
